X: 17890
T: Horsleyhill
R: jig
M: 6/8
K: Eminor
EGB BEB|BcB AGE|DFA ADA|ABA GFD|
EGB BEB|BcB AGE|CDE GBG|AFD E2E:|
Eee ede|fed edB|Add FAA|DFF FED|
Eee ede|fed edB|Add FAA|FED E2E:|

